configs/marketplace-logos/MummyFinance.svg

<svg width="512" height="512" viewBox="0 0 512 512" fill="none" xmlns="http://www.w3.org/2000/svg">
<rect width="512" height="512" fill="#101233"/>
<g clip-path="url(#clip0_5671_18044)">
<path d="M256 512C397.385 512 512 397.385 512 256C512 114.615 397.385 0 256 0C114.615 0 0 114.615 0 256C0 397.385 114.615 512 256 512Z" fill="#101233"/>
<path fill-rule="evenodd" clip-rule="evenodd" d="M183.706 440.73C183.706 440.73 206.879 424.796 256.154 424.796C305.428 424.796 328.612 440.73 328.612 440.73C328.612 440.73 321.853 449.29 313.733 451.85C305.613 454.41 294.799 452.004 281.272 461.619C267.745 471.235 256.154 470.19 256.154 470.19C256.154 470.19 244.562 471.214 231.045 461.619C217.528 452.024 206.694 454.4 198.574 451.85C190.454 449.3 183.706 440.73 183.706 440.73Z" fill="#03F5AE"/>
<path fill-rule="evenodd" clip-rule="evenodd" d="M238.981 94.9555C224.973 94.1875 205.107 95.8669 193.229 91.648C172.943 84.48 169.677 77.2199 152.504 80.8243C139.971 83.456 136.991 93.2762 135.752 103.26C166.144 97.8023 183.552 104.858 183.552 104.858C139.878 109.517 125.082 121.334 124.16 122.071C123.007 123.105 122.046 124.336 121.324 125.706C119.91 128.707 121.006 129.802 121.262 135.721C181.944 117.289 230.42 130.089 230.42 130.089C186.184 131.113 144.824 138.803 105.247 158.024L111.063 178.391C147.456 165.274 167.936 174.612 167.936 174.612C146.19 179.854 125.229 187.938 105.595 198.656L109.332 208.097C100.895 214.579 93.9725 238.766 93.9725 238.766C91.9245 225.69 100.116 207.657 100.116 207.657C82.9849 208.681 76.5645 224.942 76.5645 238.469C76.5645 251.996 85.2377 267.264 95.7542 277.197C106.271 287.13 108.677 298.086 108.677 298.086C116.654 276.285 101.161 274.534 105.38 248.637C109.599 222.74 140.687 208.968 140.687 208.968C134.304 207.562 127.824 206.634 121.303 206.193C134.687 204.145 144.056 182.702 226.97 236.564C309.883 290.427 361.226 235.94 388.762 219.453C396.954 226.14 405.514 235.94 407.583 248.637C411.791 274.493 396.319 276.285 404.275 298.086C404.275 298.086 406.682 287.119 417.198 277.197C427.715 267.274 436.439 251.945 436.439 238.428C436.439 224.911 429.978 208.671 412.836 207.616C412.836 207.616 421.11 225.649 418.98 238.725C418.98 238.725 411.812 213.637 403.128 207.718L407.685 196.229L403.456 193.219C344.422 157.43 256.154 158.72 256.154 158.72C341.658 151.204 402.033 178.77 402.033 178.77L407.06 158.095L391.578 150.528C391.578 150.528 392.253 135.772 389.693 130.355C388.188 127.16 383.795 124.017 380.477 121.979C348.314 107.858 292.977 104.858 292.977 104.858C342.241 100.301 366.705 103.342 376.566 105.38C374.856 94.9965 370.422 79.6774 359.291 77.3325C352 75.7965 347.208 76.2163 342.548 77.7728C340.5 75.4279 334.162 68.608 326.779 66.2835C317.809 63.4573 305.848 66.1095 290.939 55.4803C276.029 44.8512 263.168 46.0186 263.168 46.0186C263.168 46.0186 250.358 44.8615 235.407 55.4906C220.457 66.1197 208.497 63.4675 199.567 66.2938C190.638 69.12 183.122 78.5818 183.122 78.5818C183.122 78.5818 201.134 90.9517 239.053 94.9658L238.981 94.9555Z" fill="#03F5AE"/>
<path fill-rule="evenodd" clip-rule="evenodd" d="M256.154 416.543C256.154 416.543 214.067 416.696 193.771 423.905C173.476 431.114 170.219 438.333 153.047 434.729C140.503 432.087 137.841 421.007 136.602 411.013C166.994 416.481 183.552 407.214 183.552 407.214C139.878 402.545 125.082 390.728 124.16 390.001C123.007 388.967 122.046 387.736 121.323 386.365C119.91 383.355 120.381 381.348 120.637 375.439C181.33 393.851 230.4 381.952 230.4 381.952C186.163 380.928 144.804 373.238 105.226 354.017L111.258 331.397C149.146 340.9 167.885 337.459 167.885 337.459C146.146 332.229 125.192 324.156 105.564 313.446L110.336 301.414C171.643 326.421 340.613 326.421 401.92 301.414L407.634 315.843L403.456 318.843C344.422 354.683 256.154 353.393 256.154 353.393C341.658 360.909 402.033 333.343 402.033 333.343L407.06 354.017L391.578 361.533C391.578 361.533 393.533 380.918 390.973 386.335C389.468 389.519 385.075 392.663 381.757 394.701C349.594 408.832 292.977 407.204 292.977 407.204C342.241 411.761 366.326 412.273 376.146 410.276C374.436 420.659 370.452 432.415 359.291 434.77C342.149 438.374 338.811 431.165 318.556 423.946C298.301 416.727 256.174 416.584 256.174 416.584L256.154 416.543Z" fill="#03F5AE"/>
<path fill-rule="evenodd" clip-rule="evenodd" d="M164.608 251.32C164.608 251.32 156.774 270.152 172.124 277.668C187.474 285.184 226.028 281.385 226.028 281.385C226.028 281.385 192.604 256.748 164.588 251.32H164.608Z" fill="white"/>
<path fill-rule="evenodd" clip-rule="evenodd" d="M355.666 270.653C355.666 270.653 358.666 286.28 345.743 289.587C332.82 292.895 303.964 283.884 303.964 283.884C303.964 283.884 333.414 270.336 355.666 270.653Z" fill="white"/>
<path d="M410.552 158.966C410.552 158.966 439.777 160.881 457.574 170.854C473.006 179.487 488.028 199.373 488.028 199.373C488.028 199.373 465.981 206.316 459.121 214.385C452.823 221.819 451.523 225.188 451.523 225.188C451.523 225.188 435.22 192.184 405.852 180.06L410.552 158.966Z" fill="#03F5AE"/>
<path d="M362.138 431.77C362.138 431.77 376.617 444.457 389.53 448.154C400.722 451.308 416.952 449.055 416.952 449.055C416.952 449.055 409.928 435.579 410.491 428.636C411.013 422.246 411.976 420.076 411.976 420.076C399.656 418.375 387.609 415.084 376.136 410.286L362.138 431.77Z" fill="#03F5AE"/>
<path d="M105.257 298.721C105.257 298.721 83.2308 318.034 63.5904 323.584C46.5716 328.376 21.8829 324.946 21.8829 324.946C21.8829 324.946 32.5735 304.435 31.7441 293.888C30.9453 284.18 29.481 280.873 29.481 280.873C29.481 280.873 64.3482 292.69 93.6858 280.494L105.257 298.721Z" fill="#03F5AE"/>
<path d="M181.248 76.6976C181.248 76.6976 164.925 64.7373 158.249 52.3162C152.463 41.5642 151.081 24.3917 151.081 24.3917C151.081 24.3917 166.513 28.4877 173.507 26.368C179.937 24.3712 181.944 22.8966 181.944 22.8966C181.944 22.8966 179.2 48.1792 191.795 66.1401L181.248 76.6976Z" fill="#03F5AE"/>
</g>
<defs>
<clipPath id="clip0_5671_18044">
<rect width="512" height="512" fill="white"/>
</clipPath>
</defs>
</svg>

<svg xmlns="http://www.w3.org/2000/svg" fill="none" viewBox="0 0 512 512">
  <path fill="#101233" d="M0 0h512v512H0z"/>
  <g clip-path="url(#MummyFinance_svg__a)">
    <path fill="#101233" d="M256 512c141.385 0 256-114.615 256-256S397.385 0 256 0 0 114.615 0 256s114.615 256 256 256Z"/>
    <path fill="#03F5AE" fill-rule="evenodd" d="M183.706 440.73s23.173-15.934 72.448-15.934c49.274 0 72.458 15.934 72.458 15.934s-6.759 8.56-14.879 11.12c-8.12 2.56-18.934.154-32.461 9.769-13.527 9.616-25.118 8.571-25.118 8.571s-11.592 1.024-25.109-8.571c-13.517-9.595-24.351-7.219-32.471-9.769-8.12-2.55-14.868-11.12-14.868-11.12Zm55.275-345.774c-14.008-.769-33.874.91-45.752-3.308-20.286-7.168-23.552-14.428-40.725-10.824-12.533 2.632-15.513 12.452-16.752 22.436 30.392-5.458 47.8 1.598 47.8 1.598-43.674 4.659-58.47 16.476-59.392 17.213a13.068 13.068 0 0 0-2.836 3.635c-1.414 3.001-.318 4.096-.062 10.015 60.682-18.432 109.158-5.632 109.158-5.632-44.236 1.024-85.596 8.714-125.173 27.935l5.816 20.367c36.393-13.117 56.873-3.779 56.873-3.779a254.658 254.658 0 0 0-62.341 24.044l3.737 9.441c-8.437 6.482-15.36 30.669-15.36 30.669-2.047-13.076 6.144-31.109 6.144-31.109-17.131 1.024-23.552 17.285-23.552 30.812 0 13.527 8.674 28.795 19.19 38.728 10.517 9.933 12.923 20.889 12.923 20.889 7.977-21.801-7.516-23.552-3.297-49.449 4.219-25.897 35.307-39.669 35.307-39.669a131.298 131.298 0 0 0-19.384-2.775c13.384-2.048 22.753-23.491 105.667 30.371 82.913 53.863 134.256-.624 161.792-17.111 8.192 6.687 16.752 16.487 18.821 29.184 4.208 25.856-11.264 27.648-3.308 49.449 0 0 2.407-10.967 12.923-20.889 10.517-9.923 19.241-25.252 19.241-38.769s-6.461-29.757-23.603-30.812c0 0 8.274 18.033 6.144 31.109 0 0-7.168-25.088-15.852-31.007l4.557-11.489-4.229-3.01c-59.034-35.789-147.302-34.499-147.302-34.499 85.504-7.516 145.879 20.05 145.879 20.05l5.027-20.675-15.482-7.567s.675-14.756-1.885-20.173c-1.505-3.195-5.898-6.338-9.216-8.376-32.163-14.121-87.5-17.121-87.5-17.121 49.264-4.557 73.728-1.516 83.589.522-1.71-10.383-6.144-25.703-17.275-28.047-7.291-1.537-12.083-1.117-16.743.44-2.048-2.345-8.386-9.165-15.769-11.49-8.97-2.826-20.931-.174-35.84-10.803-14.91-10.629-27.771-9.461-27.771-9.461s-12.81-1.157-27.761 9.472c-14.95 10.629-26.91 7.977-35.84 10.803-8.929 2.826-16.445 12.288-16.445 12.288s18.012 12.37 55.931 16.384l-.072-.01Z" clip-rule="evenodd"/>
    <path fill="#03F5AE" fill-rule="evenodd" d="M256.154 416.543s-42.087.153-62.383 7.362c-20.295 7.209-23.552 14.428-40.724 10.824-12.544-2.642-15.206-13.722-16.445-23.716 30.392 5.468 46.95-3.799 46.95-3.799-43.674-4.669-58.47-16.486-59.392-17.213a13.08 13.08 0 0 1-2.837-3.636c-1.413-3.01-.942-5.017-.686-10.926 60.693 18.412 109.763 6.513 109.763 6.513-44.237-1.024-85.596-8.714-125.174-27.935l6.032-22.62c37.888 9.503 56.627 6.062 56.627 6.062a254.287 254.287 0 0 1-62.321-24.013l4.772-12.032c61.307 25.007 230.277 25.007 291.584 0l5.714 14.429-4.178 3c-59.034 35.84-147.302 34.55-147.302 34.55 85.504 7.516 145.879-20.05 145.879-20.05l5.027 20.674-15.482 7.516s1.955 19.385-.605 24.802c-1.505 3.184-5.898 6.328-9.216 8.366-32.163 14.131-88.78 12.503-88.78 12.503 49.264 4.557 73.349 5.069 83.169 3.072-1.71 10.383-5.694 22.139-16.855 24.494-17.142 3.604-20.48-3.605-40.735-10.824-20.255-7.219-62.382-7.362-62.382-7.362l-.02-.041Z" clip-rule="evenodd"/>
    <path fill="#fff" fill-rule="evenodd" d="M164.608 251.32s-7.834 18.832 7.516 26.348c15.35 7.516 53.904 3.717 53.904 3.717s-33.424-24.637-61.44-30.065h.02Zm191.058 19.333s3 15.627-9.923 18.934c-12.923 3.308-41.779-5.703-41.779-5.703s29.45-13.548 51.702-13.231Z" clip-rule="evenodd"/>
    <path fill="#03F5AE" d="M410.552 158.966s29.225 1.915 47.022 11.888c15.432 8.633 30.454 28.519 30.454 28.519s-22.047 6.943-28.907 15.012c-6.298 7.434-7.598 10.803-7.598 10.803s-16.303-33.004-45.671-45.128l4.7-21.094ZM362.138 431.77s14.479 12.687 27.392 16.384c11.192 3.154 27.422.901 27.422.901s-7.024-13.476-6.461-20.419c.522-6.39 1.485-8.56 1.485-8.56a143.908 143.908 0 0 1-35.84-9.79l-13.998 21.484ZM105.257 298.721s-22.026 19.313-41.667 24.863c-17.018 4.792-41.707 1.362-41.707 1.362s10.69-20.511 9.861-31.058c-.799-9.708-2.263-13.015-2.263-13.015s34.867 11.817 64.205-.379l11.571 18.227Zm75.991-222.023s-16.323-11.96-22.999-24.382c-5.786-10.752-7.168-27.924-7.168-27.924s15.432 4.096 22.426 1.976c6.43-1.997 8.437-3.471 8.437-3.471s-2.744 25.282 9.851 43.243l-10.547 10.558Z"/>
  </g>
  <defs>
    <clipPath id="MummyFinance_svg__a">
      <path fill="#fff" d="M0 0h512v512H0z"/>
    </clipPath>
  </defs>
</svg>
